src/assets/img/svg/doodle5.svg

<svg width="148" height="172" viewBox="0 0 148 172" fill="none" xmlns="http://www.w3.org/2000/svg">
<g clip-path="url(#clip0_105_26)">
<path d="M113.438 18.3972C129.282 31.8334 133.028 56.9583 121.596 73.1156C110.165 89.273 85.209 94.1332 67.1892 83.7405C60.8607 80.0864 54.9398 73.2213 56.8205 66.4926C58.5656 60.3287 66.1035 57.7035 72.6592 58.3529C90.9626 60.2013 103.468 81.6791 99.3978 98.9886C95.3091 116.326 78.8421 128.308 61.1862 132.351C43.5302 136.393 24.7615 133.78 6.59953 130.51" stroke="#605DBA" stroke-width="3.5" stroke-miterlimit="10" stroke-linecap="round"/>
<path d="M23.6321 119.69L5.70512 130.44L20.19 144.436" stroke="#605DBA" stroke-width="3.5" stroke-miterlimit="10" stroke-linecap="round"/>
</g>
<defs>
<clipPath id="clip0_105_26">
<rect width="160.68" height="69.0329" fill="white" transform="matrix(-0.559248 0.829001 0.829001 0.559248 90.0117 0.133301)"/>
</clipPath>
</defs>
</svg>

<svg width="148" height="172" viewBox="0 0 148 172" fill="none" xmlns="http://www.w3.org/2000/svg"><g clip-path="url(#clip0_105_26)" stroke="#605DBA" stroke-width="3.5" stroke-miterlimit="10" stroke-linecap="round"><path d="M113.438 18.397c15.844 13.436 19.59 38.561 8.158 54.719-11.431 16.157-36.387 21.017-54.407 10.624-6.328-3.654-12.25-10.519-10.368-17.247 1.745-6.164 9.282-8.79 15.838-8.14 18.304 1.848 30.809 23.326 26.739 40.636-4.089 17.337-20.556 29.319-38.212 33.362-17.656 4.042-36.425 1.429-54.586-1.841"/><path d="M23.632 119.69L5.705 130.44l14.485 13.996"/></g><defs><clipPath id="clip0_105_26"><path fill="#fff" transform="scale(-1 1) rotate(55.996 -45.131 -84.584)" d="M0 0h160.68v69.033H0z"/></clipPath></defs></svg>
